src/images/svg/blog/academy-logo.svg

<svg width="169" height="24" viewBox="0 0 169 24" fill="none" xmlns="http://www.w3.org/2000/svg">
<g clip-path="url(#clip0_5423_131862)">
<path d="M23.1829 11.7024L15.9277 7.95405L13.1629 2.67865C13.0567 2.47426 12.8956 2.30279 12.6973 2.18307C12.4991 2.06334 12.2713 2 12.039 2C11.8067 2 11.5789 2.06334 11.3807 2.18307C11.1824 2.30279 11.0213 2.47426 10.9151 2.67865L8.12386 8.00626L5.10574 9.54893L4.5781 9.35838C4.48228 9.32296 4.37922 9.31103 4.27772 9.32362C4.17623 9.33621 4.07933 9.37294 3.99532 9.43067C3.91131 9.48839 3.84267 9.56539 3.79529 9.65508C3.74792 9.74478 3.72324 9.8445 3.72332 9.9457V10.2511L0.887225 11.6998C0.777048 11.7557 0.68584 11.8423 0.624916 11.949C0.563992 12.0556 0.536013 12.1776 0.544436 12.2999C0.552858 12.4221 0.59733 12.5392 0.672321 12.6367C0.747313 12.7341 0.849526 12.8077 0.966352 12.8483L3.72332 13.8115V15.0775C3.5849 15.2803 3.50257 15.5155 3.48452 15.7596C3.46647 16.0037 3.51332 16.2482 3.62042 16.4688V16.6019L1.75782 20.1571C1.65833 20.348 1.61013 20.561 1.61779 20.7756C1.62545 20.9902 1.68871 21.1993 1.80155 21.3828C1.9144 21.5662 2.07303 21.7179 2.26218 21.8233C2.45133 21.9286 2.66465 21.9841 2.88171 21.9843H4.27734L4.55961 16.5758C4.41577 16.5038 4.29692 16.3911 4.21824 16.2519C4.13956 16.1127 4.10464 15.9534 4.11796 15.7945C4.13127 15.6356 4.19222 15.4842 4.29299 15.3597C4.39376 15.2352 4.52978 15.1433 4.68363 15.0958V10.3973L5.16906 10.5774L12.0997 7.03522L22.1012 12.2062L17.2469 13.9029C16.7456 12.4986 14.6403 11.4753 12.0416 11.4753C9.443 11.4753 7.33767 12.4986 6.8364 13.9029L5.1717 13.3208V15.1114C5.32555 15.159 5.46157 15.2509 5.56235 15.3754C5.66312 15.4998 5.72406 15.6512 5.73738 15.8102C5.75069 15.9691 5.71577 16.1283 5.63709 16.2675C5.55841 16.4067 5.43953 16.5195 5.29569 16.5915L5.578 22H21.1963C21.4133 21.9994 21.6265 21.9438 21.8156 21.8385C22.0047 21.7331 22.1633 21.5816 22.2763 21.3983C22.3893 21.215 22.4529 21.0061 22.4611 20.7915C22.4692 20.577 22.4216 20.364 22.3228 20.1728L19.207 14.2266L23.1037 12.864C23.2244 12.8256 23.3306 12.7522 23.4087 12.6534C23.4867 12.5546 23.533 12.4349 23.5415 12.3098C23.5501 12.1846 23.5204 12.0599 23.4565 11.9516C23.3925 11.8433 23.2972 11.7565 23.1829 11.7024ZM3.96076 12.8953L1.97945 12.2036L3.96076 11.1908V12.8953ZM16.1546 17.646C15.2656 16.8943 13.7802 16.4088 12.039 16.4088C10.2978 16.4088 8.81507 16.8943 7.92335 17.646V14.2997C7.92791 14.2817 7.93411 14.2643 7.94184 14.2474C8.27425 13.279 10.0129 12.5142 12.039 12.5142C14.0652 12.5142 15.8064 13.279 16.1388 14.2474L16.1546 14.2997V17.646Z" fill="#262626"/>
</g>
<path d="M38.9453 2.01123H42.4172L48.043 21.9887H43.3052L42.229 17.7562H34.8263L32.6732 21.9887H28.043L38.9453 2.01123ZM39.7794 7.82378L36.6299 14.0317H41.2867L39.7794 7.82378Z" fill="#1B1915"/>
<path d="M64.4098 7.41943C64.0552 6.92442 63.5792 6.52699 63.0265 6.26465C62.3881 5.98025 61.6929 5.84272 60.9932 5.86237C60.2105 5.85972 59.4355 6.01484 58.7154 6.31827C57.9957 6.62147 57.3389 7.05399 56.7783 7.59401C56.1942 8.15996 55.7087 8.8177 55.3415 9.54057C54.948 10.3066 54.6868 11.1324 54.5687 11.9839C54.439 12.8007 54.4621 13.6342 54.6366 14.4429C54.7875 15.1398 55.0828 15.7981 55.5038 16.3762C55.907 16.9192 56.4375 17.357 57.0496 17.6519C57.696 17.9612 58.4062 18.1173 59.1242 18.1078C59.9505 18.117 60.7672 17.933 61.5083 17.5707C62.2347 17.21 62.8731 16.697 63.3791 16.0673L66.5246 18.6739C65.5956 19.7674 64.4144 20.6239 63.0811 21.1707C61.8278 21.6943 60.4825 21.9682 59.1222 21.9763C57.7387 21.9966 56.3636 21.76 55.0684 21.2784C53.9253 20.8529 52.8991 20.1676 52.0723 19.2778C51.2576 18.3757 50.6719 17.2941 50.3638 16.1229C50.0143 14.7723 49.9495 13.3648 50.1736 11.9883C50.3673 10.5379 50.8316 9.13592 51.543 7.85368C52.877 5.43268 55.0777 3.59359 57.7121 2.6981C59.0807 2.2277 60.5203 1.99169 61.9692 2.00022C62.5283 2.00195 63.0863 2.05131 63.637 2.14776C64.2076 2.24664 64.7664 2.40406 65.3043 2.61744C65.8511 2.83526 66.3662 3.1242 66.8361 3.47663C67.3173 3.83736 67.7266 4.28364 68.043 4.7927L64.4098 7.41943Z" fill="#1B1915"/>
<path d="M76.945 2H80.4172L86.043 21.9775H81.3056L80.2288 17.745H72.8266L70.6733 21.9775H66.043L76.945 2ZM77.7799 7.81255L74.6301 14.0205H79.2865L77.7799 7.81255Z" fill="#1B1915"/>
<path d="M90.5638 2.02294H96.52C97.88 2.01184 99.2357 2.19194 100.555 2.55892C101.718 2.87006 102.805 3.46255 103.737 4.29395C104.624 5.11499 105.286 6.1955 105.646 7.41258C106.06 8.92028 106.152 10.514 105.914 12.0678C105.742 13.5846 105.278 15.0427 104.552 16.3426C103.867 17.5515 102.981 18.6049 101.941 19.4467C100.887 20.2935 99.7125 20.9371 98.4658 21.3507C97.1913 21.7825 95.8656 22.0013 94.5326 22H88.043L90.5638 2.02294ZM92.5222 17.937H94.5845C95.4576 17.9425 96.3286 17.8385 97.1808 17.6269C97.9583 17.438 98.6966 17.0886 99.3574 16.5969C100.006 16.103 100.549 15.4579 100.948 14.7068C101.404 13.8242 101.698 12.8509 101.814 11.8424C101.941 10.9886 101.884 10.1136 101.648 9.28872C101.435 8.59006 101.052 7.97021 100.541 7.49734C99.9989 7.00782 99.3717 6.64749 98.6985 6.43885C97.9407 6.19784 97.1555 6.07896 96.3671 6.08584H94.0254L92.5222 17.937Z" fill="#1B1915"/>
<path d="M110.774 2.02246H124.043L123.491 6.08546H114.526L114.002 9.80993H122.47L121.918 13.8739H113.45L112.898 17.937H122.36L121.809 22H108.043L110.774 2.02246Z" fill="#1B1915"/>
<path d="M127.686 2.02246H133.987L136.603 15.0579H136.656L142.769 2.02246H149.043L146.399 21.9989H142.235L144.264 6.67805H144.211L137.218 21.9989H134.039L131.29 6.6791H131.237L129.207 22H125.043L127.686 2.02246Z" fill="#1B1915"/>
<path d="M155.51 13.4786L150.043 2.02246H155.119L158.075 9.4998L163.203 2.02246H168.043L159.592 13.4786L158.493 22H154.412L155.51 13.4786Z" fill="#1B1915"/>
<defs>
<clipPath id="clip0_5423_131862">
<rect width="24" height="24" fill="white" transform="translate(0.0429688)"/>
</clipPath>
</defs>
</svg>

<svg width="169" height="24" fill="none" xmlns="http://www.w3.org/2000/svg"><g clip-path="url(#clip0_5423_131862)"><path d="M23.183 11.702l-7.255-3.748-2.765-5.275a1.273 1.273 0 00-2.248 0L8.124 8.006 5.106 9.55l-.528-.19a.64.64 0 00-.783.296.621.621 0 00-.072.29v.306L.887 11.7a.63.63 0 00-.343.6.623.623 0 00.422.548l2.757.963v1.267a1.392 1.392 0 00-.103 1.39v.134l-1.862 3.555a1.242 1.242 0 00.504 1.666c.19.106.403.161.62.161h1.395l.283-5.408a.806.806 0 01-.442-.782.797.797 0 01.566-.698v-4.699l.485.18 6.93-3.542 10.002 5.171-4.854 1.697c-.501-1.404-2.607-2.428-5.205-2.428-2.599 0-4.704 1.024-5.206 2.428l-1.664-.582v1.79a.81.81 0 01.565.7.794.794 0 01-.441.78L5.578 22h15.618a1.28 1.28 0 001.08-.602 1.247 1.247 0 00.047-1.225l-3.116-5.946 3.897-1.363a.633.633 0 00.438-.554.62.62 0 00-.36-.608zM3.96 12.895l-1.982-.691 1.982-1.013v1.704zm12.194 4.751c-.89-.752-2.375-1.237-4.116-1.237-1.741 0-3.224.485-4.116 1.237V14.3a.306.306 0 01.019-.053c.332-.968 2.07-1.733 4.097-1.733 2.026 0 3.767.765 4.1 1.733l.016.053v3.346z" fill="#262626"/></g><path d="M38.945 2.011h3.472l5.626 19.978h-4.738l-1.076-4.233h-7.403l-2.153 4.233h-4.63L38.945 2.01zm.834 5.813l-3.15 6.208h4.658l-1.508-6.208zM64.41 7.42a3.6 3.6 0 00-1.383-1.155 4.675 4.675 0 00-2.034-.403 5.816 5.816 0 00-2.278.456 6.34 6.34 0 00-1.937 1.276 7.339 7.339 0 00-1.436 1.947 7.646 7.646 0 00-.773 2.443c-.13.817-.107 1.65.068 2.459.15.697.446 1.355.867 1.933.403.543.934.981 1.546 1.276.646.31 1.356.465 2.074.456a5.295 5.295 0 002.384-.537 5.587 5.587 0 001.871-1.504l3.146 2.607a8.997 8.997 0 01-3.444 2.497 10.433 10.433 0 01-3.959.805 11.163 11.163 0 01-4.054-.698 7.806 7.806 0 01-2.996-2 7.588 7.588 0 01-1.708-3.155 10.053 10.053 0 01-.19-4.135 11.72 11.72 0 011.369-4.134 11.125 11.125 0 016.17-5.156A12.865 12.865 0 0161.968 2c.56.002 1.117.051 1.668.148.57.099 1.13.256 1.667.47a6.662 6.662 0 011.532.859c.481.36.89.807 1.207 1.316L64.41 7.419zM76.945 2h3.472l5.626 19.977h-4.737l-1.077-4.232h-7.402l-2.154 4.232h-4.63L76.945 2zm.835 5.813l-3.15 6.208h4.657L77.78 7.813zM90.564 2.023h5.956a14.6 14.6 0 014.035.536 7.823 7.823 0 013.182 1.735 6.913 6.913 0 011.909 3.119c.414 1.507.506 3.101.268 4.655a11.412 11.412 0 01-1.362 4.275 10.89 10.89 0 01-2.611 3.104 11.165 11.165 0 01-3.475 1.904c-1.275.431-2.6.65-3.933.649h-6.49l2.52-19.977zm1.958 15.914h2.063c.873.005 1.744-.099 2.596-.31a6.033 6.033 0 002.176-1.03 5.77 5.77 0 001.591-1.89c.456-.883.75-1.856.866-2.865a6.064 6.064 0 00-.166-2.553 4.04 4.04 0 00-1.107-1.792 4.93 4.93 0 00-1.843-1.058 7.47 7.47 0 00-2.33-.353h-2.343l-1.503 11.851zM110.774 2.022h13.269l-.552 4.063h-8.965l-.524 3.725h8.468l-.552 4.064h-8.468l-.552 4.063h9.462L121.809 22h-13.766l2.731-19.978zM127.686 2.022h6.301l2.616 13.036h.053l6.113-13.036h6.274L146.399 22h-4.164l2.029-15.32h-.053l-6.993 15.32h-3.179l-2.749-15.32h-.053L129.207 22h-4.164l2.643-19.978zM155.51 13.479l-5.467-11.457h5.076l2.956 7.478 5.128-7.478h4.84l-8.451 11.457L158.493 22h-4.081l1.098-8.521z" fill="#1B1915"/><defs><clipPath id="clip0_5423_131862"><path fill="#fff" transform="translate(.043)" d="M0 0h24v24H0z"/></clipPath></defs></svg>
